X:1
T: Bouchard's Hornpipe
C: Mike Springer
M: C|
Z: Transcribed to abc by Mary Lou Knack
R: hornpipe
K: D
FE \
| "D"DFAd "G"BcdB | "A"cdec "D"d2ef | "Em"gfga gfed | "A7"edcB A2dc | "G"B2BA BcdB |
| "D"AGFG A2Bc | "(G)"dcdf "A"edc2 | "D"d4 d2 :: fg | "D"a2ab agfa | "Em"gfef g2ag |
| "Bm"f2fd gfed | "A"cdec A2dc | "G"B2BA BcdB | "D"AGFG A2Bc | "(G)"dcdf "A"edc2 | "D"d4 d2 :|
